X:24
T:Tom Billy's Jig
B:Terry "Cuz" Teahan "Sliabh Luachra on Parade" 1980
Z:Patrick Cavanagh
M:6/8
L:1/8
R:Jig
K:D
F | EFE EFA | BAF D2F | AFF DFF | EFA Bcd | 
EFE EFA | BAF D2F | AFF DFF | EFE E2 :| 
A | Bee ede | fef edB | AFD DFA | BAB dAF | 
Bcd ede | fef edB | ABd FED | EFE E2 :|| 

